svgs/thin/user-vneck-hair.svg

<svg xmlns="http://www.w3.org/2000/svg" viewBox="0 0 448 512"><!--! Font Awesome Pro 6.4.0 by @fontawesome - https://fontawesome.com License - https://fontawesome.com/license (Commercial License) Copyright 2023 Fonticons, Inc. --><path d="M336 128c0-5.4-.4-10.8-1.1-16H312c-22.1 0-43-10.2-56.6-27.5L251 89.9C231.2 114 201.7 128 170.5 128L112 128v16c0 61.9 50.1 112 112 112s112-50.1 112-112V128zM267.2 73.6C277.8 87.7 294.4 96 312 96h19.4c-6.8-22.8-20.6-42.5-39-56.7L265.8 71.8l1.4 1.8zM279 30.4C262.7 21.2 244 16 224 16c-56.4 0-103.1 41.7-110.9 96h57.4c26.4 0 51.4-11.8 68.1-32.3L279 30.4zM96 128C96 57.3 153.3 0 224 0s128 57.3 128 128v16c0 70.7-57.3 128-128 128s-128-57.3-128-128V128zM198.4 408.5l-63.7-84.9C66.8 338.8 16 399.5 16 472v8c0 8.8 7.2 16 16 16H416c8.8 0 16-7.2 16-16v-8c0-72.5-50.8-133.2-118.7-148.4l-63.7 84.9c-12.8 17.1-38.4 17.1-51.2 0zM132.1 307.8c5.8-1.3 11.7 1.2 15.3 5.9l63.9 85.2c6.4 8.5 19.2 8.5 25.6 0l63.9-85.2c3.6-4.7 9.5-7.2 15.3-5.9C391.4 324.3 448 391.5 448 472v8c0 17.7-14.3 32-32 32H32c-17.7 0-32-14.3-32-32v-8c0-80.5 56.6-147.7 132.1-164.2z"/></svg>

<svg xmlns="http://www.w3.org/2000/svg" viewBox="0 0 448 512"><!--! Font Awesome Pro 6.3.0 by @fontawesome - https://fontawesome.com License - https://fontawesome.com/license (Commercial License) Copyright 2023 Fonticons, Inc. --><path d="M96 128C96 57.31 153.3 0 224 0C294.7 0 352 57.31 352 128V144C352 214.7 294.7 272 224 272C153.3 272 96 214.7 96 144V128zM334.9 112H312C289.9 112 269 101.8 255.4 84.49L250.1 89.86C231.2 113.1 201.7 128 170.5 128H112V144C112 205.9 162.1 256 224 256C285.9 256 336 205.9 336 144V128C336 122.6 335.6 117.2 334.9 112L334.9 112zM312 96H331.4C324.6 73.21 310.7 53.46 292.4 39.29L265.8 71.75L267.2 73.6C277.8 87.7 294.4 96 311.1 96H312zM278.1 30.4C262.7 21.23 243.1 16 224 16C167.6 16 120.9 57.72 113.1 112H170.5C196.9 112 221.9 100.2 238.6 79.72L278.1 30.4zM448 480C448 497.7 433.7 512 416 512H32C14.33 512 0 497.7 0 480V472C0 388.2 61.33 318.8 141.6 306.1L224 416L306.4 306.1C386.7 318.8 448 388.2 448 472V480zM134.7 323.6C66.79 338.8 16 399.5 16 472V480C16 488.8 23.16 496 32 496H416C424.8 496 432 488.8 432 480V472C432 399.5 381.2 338.8 313.3 323.6L236.8 425.6C233.8 429.6 229 432 224 432C218.1 432 214.2 429.6 211.2 425.6L134.7 323.6z"/></svg>
